storage/app/icons/phosphoricons/regular/pencil-ruler.svg

<svg xmlns="http://www.w3.org/2000/svg" fill="currentColor" viewBox="0 0 256 256"><path d="M208 32h-48a16 16 0 0 0-16 16v160a16 16 0 0 0 16 16h48a16 16 0 0 0 16-16V48a16 16 0 0 0-16-16m0 176h-48v-32h24a8 8 0 0 0 0-16h-24v-24h24a8 8 0 0 0 0-16h-24V96h24a8 8 0 0 0 0-16h-24V48h48zM77.66 26.34a8 8 0 0 0-11.32 0l-32 32A8 8 0 0 0 32 64v144a16 16 0 0 0 16 16h48a16 16 0 0 0 16-16V64a8 8 0 0 0-2.34-5.66ZM48 176V80h16v96Zm32-96h16v96H80Zm-8-36.69L92.69 64H51.31ZM48 208v-16h48v16Z"/></svg>

<svg xmlns="http://www.w3.org/2000/svg" viewBox="0 0 256 256" fill="currentColor"><path d="M208,32H160a16,16,0,0,0-16,16V208a16,16,0,0,0,16,16h48a16,16,0,0,0,16-16V48A16,16,0,0,0,208,32Zm0,176H160V176h24a8,8,0,0,0,0-16H160V136h24a8,8,0,0,0,0-16H160V96h24a8,8,0,0,0,0-16H160V48h48V208ZM77.66,26.34a8,8,0,0,0-11.32,0l-32,32A8,8,0,0,0,32,64V208a16,16,0,0,0,16,16H96a16,16,0,0,0,16-16V64a8,8,0,0,0-2.34-5.66ZM48,176V80H64v96ZM80,80H96v96H80ZM72,43.31,92.69,64H51.31ZM48,208V192H96v16Z"/></svg>
